;FLAVOR:UltiGCode
;TIME:2986
;MATERIAL:4376
;MATERIAL2:0

;Layer count: 15
;LAYER:0
M107
G0 F9000 X84.012 Y37.019 Z0.300
;TYPE:SKIRT
G1 F1200 X98.012 Y37.019 E1.68000
G1 X98.012 Y48.719 E3.08400
G1 X97.004 Y48.719 E3.20496
G1 X96.967 Y49.595 E3.31017
G1 X96.674 Y50.561 E3.43131
G1 X96.291 Y51.346 E3.53612
G1 X95.601 Y52.238 E3.67145
G1 X94.807 Y52.887 E3.79451
G1 X93.902 Y53.374 E3.91783
G1 X92.703 Y53.707 E4.06716
G1 X90.035 Y53.719 E4.38732
G1 X89.103 Y53.663 E4.49937
G1 X88.176 Y53.382 E4.61560
G1 X87.385 Y52.999 E4.72107
G1 X86.490 Y52.303 E4.85712
G1 X85.844 Y51.513 E4.97958
G1 X85.414 Y50.714 E5.08846
G1 X85.175 Y50.016 E5.17699
G1 X85.023 Y49.256 E5.27000
G1 X85.022 Y48.719 E5.33444
G1 X84.012 Y48.719 E5.45564
G1 X84.012 Y37.019 E6.85964
G0 F9000 X84.412 Y37.419
G1 F1200 X97.612 Y37.419 E8.44364
G1 X97.612 Y48.319 E9.75164
G1 X96.612 Y48.319 E9.87164
G1 X96.612 Y48.528 E9.89672
G1 X96.569 Y49.527 E10.01671
G1 X96.301 Y50.414 E10.12790
G1 X95.949 Y51.133 E10.22397
G1 X95.312 Y51.957 E10.34895
G1 X94.583 Y52.553 E10.46195
G1 X93.752 Y53.000 E10.57518
G1 X92.648 Y53.307 E10.71268
G1 X90.046 Y53.318 E11.02493
G1 X89.174 Y53.266 E11.12975
G1 X88.322 Y53.008 E11.23658
G1 X87.597 Y52.657 E11.33324
G1 X86.771 Y52.015 E11.45878
G1 X86.178 Y51.289 E11.57126
G1 X85.782 Y50.553 E11.67156
G1 X85.562 Y49.911 E11.75299
G1 X85.423 Y49.216 E11.83805
G1 X85.421 Y48.319 E11.94569
G1 X84.412 Y48.319 E12.06677
G1 X84.412 Y37.419 E13.37477
G0 F9000 X84.812 Y37.819
G1 F1200 X97.212 Y37.819 E14.86277
G1 X97.212 Y47.919 E16.07477
G1 X96.212 Y47.919 E16.19477
G1 X96.212 Y48.519 E16.26677
G1 X96.172 Y49.460 E16.37979
G1 X95.927 Y50.267 E16.48099
G1 X95.608 Y50.921 E16.56831
G1 X95.024 Y51.677 E16.68295
G1 X94.360 Y52.219 E16.78580
G1 X93.602 Y52.627 E16.88910
G1 X92.592 Y52.907 E17.01487
G1 X90.057 Y52.918 E17.31907
G1 X89.245 Y52.870 E17.41668
G1 X88.468 Y52.635 E17.51410
G1 X87.809 Y52.315 E17.60201
G1 X87.052 Y51.727 E17.71703
G1 X86.512 Y51.066 E17.81945
G1 X86.150 Y50.392 E17.91126
G1 X85.949 Y49.807 E17.98549
G1 X85.823 Y49.176 E18.06271
G1 X85.820 Y47.919 E18.21355
G1 X84.812 Y47.919 E18.33451
G1 X84.812 Y37.819 E19.54651
G10
G0 F9000 X88.612 Y41.619
;TYPE:WALL-INNER
G11
G1 F1200 X93.412 Y41.619 E20.12251
G1 X93.412 Y44.119 E20.42251
G1 X92.412 Y44.119 E20.54251
G1 X92.412 Y48.451 E21.06235
G1 X92.396 Y48.817 E21.10631
G1 X92.365 Y48.902 E21.11716
G1 X92.284 Y49.008 E21.13317
G1 X92.235 Y49.048 E21.14076
G1 X92.178 Y49.078 E21.14849
G1 X92.066 Y49.109 E21.16244
G1 X90.164 Y49.118 E21.39068
G1 X89.917 Y49.103 E21.42038
G1 X89.825 Y49.069 E21.43215
G1 X89.724 Y48.991 E21.44746
G1 X89.683 Y48.941 E21.45522
G1 X89.646 Y48.872 E21.46461
G1 X89.622 Y48.796 E21.47418
G1 X89.612 Y44.986 E21.93138
G1 X89.612 Y44.119 E22.03542
G1 X88.612 Y44.119 E22.15542
G1 X88.612 Y41.619 E22.45542
G0 F9000 X88.212 Y41.219
;TYPE:WALL-OUTER
G1 F1200 X93.812 Y41.219 E23.12742
G1 X93.812 Y44.519 E23.52342
G1 X92.812 Y44.519 E23.64342
G1 X92.812 Y48.442 E24.11418
G1 X92.793 Y48.888 E24.16775
G1 X92.703 Y49.120 E24.19761
G1 X92.574 Y49.287 E24.22293
G1 X92.461 Y49.380 E24.24049
G1 X92.328 Y49.451 E24.25859
G1 X92.120 Y49.509 E24.28450
G1 X90.157 Y49.518 E24.52006
G1 X89.844 Y49.499 E24.55769
G1 X89.614 Y49.412 E24.58720
G1 X89.442 Y49.278 E24.61336
G1 X89.351 Y49.167 E24.63059
G1 X89.275 Y49.026 E24.64981
G1 X89.238 Y48.918 E24.66351
G1 X89.222 Y48.836 E24.67353
G1 X89.211 Y44.519 E25.19157
G1 X88.212 Y44.519 E25.31145
G1 X88.212 Y41.219 E25.70745
G0 F9000 X88.993 Y41.758
;TYPE:SKIN
G1 F900 X92.271 Y45.037 E26.26383
G0 F9000 X92.271 Y45.602
G1 F900 X88.751 Y42.082 E26.86120
G0 F9000 X88.751 Y42.647
G1 F900 X92.271 Y46.168 E27.45865
G0 F9000 X92.271 Y46.734
G1 F900 X89.750 Y44.212 E27.88656
G0 F9000 X89.516 Y43.978
G1 F900 X88.751 Y43.213 E28.01638
G0 F9000 X88.751 Y43.779
G1 F900 X88.950 Y43.978 E28.05016
G0 F9000 X89.751 Y44.779
G1 F900 X92.271 Y47.299 E28.47781
G0 F9000 X92.271 Y47.865
G1 F900 X89.753 Y45.346 E28.90522
G0 F9000 X89.754 Y45.913
G1 F900 X92.271 Y48.431 E29.33245
G0 F9000 X92.183 Y48.908
G1 F900 X89.755 Y46.480 E29.74450
G0 F9000 X89.756 Y47.047
G1 F900 X91.679 Y48.969 E30.07076
G0 F9000 X91.116 Y48.972
G1 F900 X89.758 Y47.614 E30.30122
G0 F9000 X89.759 Y48.181
G1 F900 X90.553 Y48.975 E30.43596
G0 F9000 X89.977 Y48.965
G1 F900 X89.760 Y48.747 E30.47287
G0 F9000 X92.271 Y44.471
G1 F900 X89.559 Y41.758 E30.93320
G0 F9000 X90.125 Y41.758
G1 F900 X92.345 Y43.979 E31.31003
G0 F9000 X92.911 Y43.979
G1 F900 X90.690 Y41.758 E31.68695
G0 F9000 X91.256 Y41.758
G1 F900 X93.271 Y43.774 E32.02899
G0 F9000 X93.271 Y43.208
G1 F900 X91.822 Y41.758 E32.27498
G0 F9000 X92.387 Y41.758
G1 F900 X93.271 Y42.642 E32.42500
G0 F9000 X93.271 Y42.077
G1 F900 X92.953 Y41.758 E32.47905
;LAYER:1
M106 S255
G0 F9000 X92.412 Y44.119 Z0.500
;TYPE:WALL-INNER
G1 F1800 X92.412 Y48.686 E32.84441
G1 X92.400 Y48.804 E32.85390
G1 X92.386 Y48.850 E32.85774
G1 X92.327 Y48.952 E32.86717
G1 X92.173 Y49.082 E32.88329
G1 X92.043 Y49.115 E32.89402
G1 X90.283 Y49.118 E33.03482
G1 X89.912 Y49.101 E33.06453
G1 X89.881 Y49.092 E33.06712
G1 X89.779 Y49.033 E33.07654
G1 X89.649 Y48.879 E33.09267
G1 X89.616 Y48.749 E33.10340
G1 X89.611 Y44.119 E33.47380
G1 X88.612 Y44.119 E33.55372
G1 X88.612 Y41.619 E33.75372
G1 X93.412 Y41.619 E34.13772
G1 X93.412 Y44.119 E34.33772
G1 X92.412 Y44.119 E34.41772
G0 F9000 X92.812 Y44.519
;TYPE:WALL-OUTER
G1 F1320 X92.812 Y48.708 E34.75284
G1 X92.794 Y48.882 E34.76683
G1 X92.756 Y49.010 E34.77751
G1 X92.641 Y49.209 E34.79590
G1 X92.412 Y49.410 E34.82028
G1 X92.325 Y49.454 E34.82808
G1 X92.207 Y49.494 E34.83804
G1 X92.075 Y49.515 E34.84874
G1 X90.288 Y49.518 E34.99170
G1 X89.842 Y49.498 E35.02741
G1 X89.721 Y49.462 E35.03751
G1 X89.522 Y49.347 E35.05590
G1 X89.321 Y49.118 E35.08027
G1 X89.237 Y48.913 E35.09800
G1 X89.216 Y48.781 E35.10869
G1 X89.212 Y44.519 E35.44965
G1 X88.212 Y44.519 E35.52965
G1 X88.212 Y41.219 E35.79365
G1 X93.812 Y41.219 E36.24165
G1 X93.812 Y44.519 E36.50565
G1 X92.812 Y44.519 E36.58565
G0 F9000 X92.633 Y43.979
;TYPE:SKIN
G1 F900 X93.271 Y43.341 E36.65783
G0 F9000 X93.271 Y43.907
G1 F900 X93.199 Y43.979 E36.66598
G0 F9000 X92.271 Y44.341
G1 F900 X89.753 Y46.859 E36.95086
G0 F9000 X89.753 Y46.294
G1 F900 X93.271 Y42.775 E37.34893
G0 F9000 X93.271 Y42.210
G1 F900 X89.752 Y45.729 E37.74706
G0 F9000 X89.751 Y45.164
G1 F900 X93.157 Y41.758 E38.13240
G0 F9000 X92.591 Y41.758
G1 F900 X89.751 Y44.598 E38.45371
G0 F9000 X89.750 Y44.033
G1 F900 X92.025 Y41.758 E38.71110
G0 F9000 X91.460 Y41.758
G1 F900 X89.239 Y43.979 E38.96238
G0 F9000 X88.751 Y43.901
G1 F900 X90.894 Y41.758 E39.20483
G0 F9000 X90.328 Y41.758
G1 F900 X88.751 Y43.335 E39.38325
G0 F9000 X88.751 Y42.770
G1 F900 X89.762 Y41.758 E39.49769
G0 F9000 X89.197 Y41.758
G1 F900 X88.751 Y42.204 E39.54815
G0 F9000 X92.271 Y44.907
G1 F900 X89.754 Y47.424 E39.83291
G0 F9000 X89.755 Y47.989
G1 F900 X92.271 Y45.473 E40.11756
G0 F9000 X92.271 Y46.039
G1 F900 X89.755 Y48.554 E40.40216
G0 F9000 X89.921 Y48.954
G1 F900 X92.271 Y46.604 E40.66803
G0 F9000 X92.271 Y47.170
G1 F900 X90.462 Y48.978 E40.87264
G0 F9000 X91.029 Y48.977
G1 F900 X92.271 Y47.736 E41.01310
G0 F9000 X92.271 Y48.301
G1 F900 X91.596 Y48.976 E41.08947
;LAYER:2
G0 F9000 X92.050 Y49.112 Z0.700
;TYPE:WALL-INNER
G1 F2400 X90.416 Y49.118 E41.22019
G1 X89.973 Y49.114 E41.25563
G1 X89.896 Y49.098 E41.26192
G1 X89.795 Y49.052 E41.27080
G1 X89.723 Y48.985 E41.27867
G1 X89.628 Y48.820 E41.29390
G1 X89.612 Y44.119 E41.66998
G1 X88.612 Y44.119 E41.74998
G1 X88.612 Y41.619 E41.94998
G1 X93.412 Y41.619 E42.33398
G1 X93.412 Y44.119 E42.53398
G1 X92.412 Y44.119 E42.61398
G1 X92.412 Y48.676 E42.97854
G1 X92.386 Y48.847 E42.99238
G1 X92.346 Y48.936 E43.00019
G1 X92.279 Y49.008 E43.00805
G1 X92.131 Y49.094 E43.02175
G1 X92.050 Y49.112 E43.02839
G0 F9000 X92.660 Y49.187
;TYPE:WALL-OUTER
G1 F1500 X92.532 Y49.324 E43.04339
G1 X92.278 Y49.470 E43.06682
G1 X92.096 Y49.512 E43.08177
G1 X90.413 Y49.518 E43.21641
G1 X89.929 Y49.513 E43.25513
G1 X89.772 Y49.481 E43.26795
G1 X89.597 Y49.402 E43.28331
G1 X89.544 Y49.366 E43.28843
G1 X89.407 Y49.238 E43.30343
G1 X89.256 Y48.976 E43.32762
G1 X89.214 Y48.747 E43.34625
G1 X89.212 Y44.519 E43.68449
G1 X88.212 Y44.519 E43.76449
G1 X88.212 Y41.219 E44.02849
G1 X93.812 Y41.219 E44.47649
G1 X93.812 Y44.519 E44.74049
G1 X92.812 Y44.519 E44.82049
G1 X92.812 Y48.701 E45.15505
G1 X92.773 Y48.963 E45.17624
G1 X92.696 Y49.134 E45.19124
G1 X92.660 Y49.187 E45.19637
G0 F9000 X92.178 Y48.903
;TYPE:SKIN
G1 F900 X89.758 Y46.483 E45.47016
G0 F9000 X89.760 Y47.051
G1 F900 X91.681 Y48.972 E45.68750
G0 F9000 X91.116 Y48.972
G1 F900 X89.762 Y47.619 E45.84063
G0 F9000 X89.765 Y48.187
G1 F900 X90.551 Y48.973 E45.92955
G0 F9000 X89.984 Y48.972
G1 F900 X89.766 Y48.754 E45.95422
G0 F9000 X92.271 Y48.431
G1 F900 X89.756 Y45.915 E46.23881
G0 F9000 X89.754 Y45.348
G1 F900 X92.271 Y47.865 E46.52358
G0 F9000 X92.271 Y47.299
G1 F900 X89.753 Y44.781 E46.80846
G0 F9000 X89.750 Y44.213
G1 F900 X92.271 Y46.734 E47.09368
G0 F9000 X92.271 Y46.168
G1 F900 X88.751 Y42.647 E47.49198
G0 F9000 X88.751 Y42.082
G1 F900 X92.271 Y45.602 E47.89022
G0 F9000 X92.271 Y45.037
G1 F900 X88.993 Y41.758 E48.26114
G0 F9000 X89.559 Y41.758
G1 F900 X92.271 Y44.471 E48.56802
G0 F9000 X92.345 Y43.979
G1 F900 X90.125 Y41.758 E48.81924
G0 F9000 X90.690 Y41.758
G1 F900 X92.911 Y43.979 E49.07052
G0 F9000 X93.271 Y43.774
G1 F900 X91.256 Y41.758 E49.29855
G0 F9000 X91.822 Y41.758
G1 F900 X93.271 Y43.208 E49.46254
G0 F9000 X93.271 Y42.642
G1 F900 X92.387 Y41.758 E49.56256
G0 F9000 X92.953 Y41.758
G1 F900 X93.271 Y42.077 E49.59859
G0 F9000 X89.516 Y43.978
G1 F900 X88.751 Y43.213 E49.68514
G0 F9000 X88.751 Y43.779
G1 F900 X88.950 Y43.978 E49.70765
;LAYER:3
G0 F9000 X92.670 Y41.758 Z0.900
;TYPE:FILL
G1 F1440 X93.271 Y42.359 E49.77565
G0 F9000 X92.412 Y44.119
;TYPE:WALL-INNER
G1 F1080 X92.412 Y48.672 E50.13989
G1 X92.387 Y48.842 E50.15364
G1 X92.351 Y48.923 E50.16073
G1 X92.282 Y49.007 E50.16942
G1 X92.194 Y49.069 E50.17803
G1 X92.090 Y49.107 E50.18689
G1 X90.058 Y49.118 E50.34946
G1 X89.889 Y49.093 E50.36312
G1 X89.808 Y49.057 E50.37021
G1 X89.724 Y48.988 E50.37891
G1 X89.662 Y48.900 E50.38752
G1 X89.626 Y48.804 E50.39572
G1 X89.612 Y44.119 E50.77053
G1 X88.612 Y44.119 E50.85053
G1 X88.612 Y41.619 E51.05053
G1 X93.412 Y41.619 E51.43453
G1 X93.412 Y44.119 E51.63453
G1 X92.412 Y44.119 E51.71453
G0 F9000 X92.812 Y44.519
;TYPE:WALL-OUTER
G1 F540 X92.812 Y48.703 E52.04925
G1 X92.775 Y48.953 E52.06946
G1 X92.695 Y49.133 E52.08522
G1 X92.554 Y49.305 E52.10301
G1 X92.382 Y49.425 E52.11979
G1 X92.182 Y49.499 E52.13685
G1 X92.018 Y49.518 E52.15006
G1 X90.027 Y49.518 E52.30934
G1 X89.778 Y49.481 E52.32948
G1 X89.598 Y49.401 E52.34524
G1 X89.426 Y49.260 E52.36303
G1 X89.304 Y49.086 E52.38003
G1 X89.235 Y48.903 E52.39568
G1 X89.212 Y48.704 E52.41170
G1 X89.212 Y44.519 E52.74650
G1 X88.212 Y44.519 E52.82650
G1 X88.212 Y41.219 E53.09050
G1 X93.812 Y41.219 E53.53850
G1 X93.812 Y44.519 E53.80250
G1 X92.812 Y44.519 E53.88250
G0 F9000 X92.812 Y43.519
;LAYER:4
G0 X93.271 Y42.359 Z1.100
;TYPE:FILL
G1 F1560 X92.670 Y41.758 E53.95050
G0 F9000 X92.412 Y44.119
;TYPE:WALL-INNER
G1 F1140 X92.412 Y48.724 E54.31890
G1 X92.369 Y48.900 E54.33339
G1 X92.274 Y49.020 E54.34564
G1 X92.179 Y49.082 E54.35471
G1 X92.108 Y49.106 E54.36071
G1 X90.674 Y49.118 E54.47543
G1 X90.032 Y49.118 E54.52679
G1 X89.936 Y49.111 E54.53449
G1 X89.896 Y49.101 E54.53779
G1 X89.785 Y49.047 E54.54767
G1 X89.668 Y48.922 E54.56136
G1 X89.619 Y48.786 E54.57293
G1 X89.612 Y44.119 E54.94629
G1 X88.612 Y44.119 E55.02629
G1 X88.612 Y41.619 E55.22629
G1 X93.412 Y41.619 E55.61029
G1 X93.412 Y44.119 E55.81029
G1 X92.412 Y44.119 E55.89029
G0 F9000 X92.812 Y44.519
;TYPE:WALL-OUTER
G1 F540 X92.812 Y48.731 E56.22725
G1 X92.791 Y48.904 E56.24119
G1 X92.667 Y49.178 E56.26525
G1 X92.566 Y49.297 E56.27774
G1 X92.382 Y49.428 E56.29581
G1 X92.148 Y49.506 E56.31554
G1 X90.677 Y49.518 E56.43322
G1 X90.014 Y49.518 E56.48626
G1 X89.827 Y49.497 E56.50132
G1 X89.592 Y49.399 E56.52169
G1 X89.434 Y49.272 E56.53790
G1 X89.303 Y49.088 E56.55597
G1 X89.224 Y48.848 E56.57619
G1 X89.212 Y44.519 E56.92251
G1 X88.212 Y44.519 E57.00251
G1 X88.212 Y41.219 E57.26651
G1 X93.812 Y41.219 E57.71451
G1 X93.812 Y44.519 E57.97851
G1 X92.812 Y44.519 E58.05851
G0 F9000 X92.812 Y43.519
;LAYER:5
G0 X93.271 Y42.359 Z1.300
;TYPE:FILL
G1 F1560 X92.670 Y41.758 E58.12650
G0 F9000 X92.412 Y44.119
;TYPE:WALL-INNER
G1 F1140 X92.412 Y48.664 E58.49010
G1 X92.373 Y48.881 E58.50774
G1 X92.358 Y48.913 E58.51057
G1 X92.269 Y49.019 E58.52164
G1 X92.230 Y49.049 E58.52558
G1 X92.086 Y49.107 E58.53800
G1 X90.807 Y49.118 E58.64032
G1 X90.066 Y49.118 E58.69960
G1 X89.850 Y49.079 E58.71716
G1 X89.818 Y49.064 E58.71999
G1 X89.712 Y48.975 E58.73106
G1 X89.682 Y48.936 E58.73500
G1 X89.620 Y48.781 E58.74835
G1 X89.612 Y46.319 E58.94531
G1 X89.612 Y44.119 E59.12131
G1 X88.612 Y44.119 E59.20131
G1 X88.612 Y41.619 E59.40131
G1 X93.412 Y41.619 E59.78531
G1 X93.412 Y44.119 E59.98531
G1 X92.412 Y44.119 E60.06531
G0 F9000 X92.812 Y44.519
;TYPE:WALL-OUTER
G1 F540 X92.812 Y48.700 E60.39979
G1 X92.758 Y49.003 E60.42441
G1 X92.693 Y49.136 E60.43626
G1 X92.547 Y49.311 E60.45449
G1 X92.428 Y49.400 E60.46638
G1 X92.181 Y49.500 E60.48769
G1 X90.810 Y49.518 E60.59738
G1 X90.030 Y49.518 E60.65978
G1 X89.728 Y49.464 E60.68433
G1 X89.595 Y49.399 E60.69617
G1 X89.420 Y49.253 E60.71440
G1 X89.331 Y49.134 E60.72629
G1 X89.232 Y48.889 E60.74743
G1 X89.217 Y48.792 E60.75528
G1 X89.212 Y44.519 E61.09712
G1 X88.212 Y44.519 E61.17712
G1 X88.212 Y41.219 E61.44112
G1 X93.812 Y41.219 E61.88912
G1 X93.812 Y44.519 E62.15312
G1 X92.812 Y44.519 E62.23312
G0 F9000 X92.812 Y43.519
;LAYER:6
G0 X93.271 Y42.359 Z1.500
;TYPE:FILL
G1 F1560 X92.670 Y41.758 E62.30112
G0 F9000 X92.412 Y44.119
;TYPE:WALL-INNER
G1 F1140 X92.412 Y48.675 E62.66560
G1 X92.389 Y48.835 E62.67853
G1 X92.345 Y48.932 E62.68705
G1 X92.286 Y49.008 E62.69475
G1 X92.255 Y49.035 E62.69804
G1 X92.091 Y49.109 E62.71243
G1 X90.944 Y49.118 E62.80419
G1 X90.055 Y49.118 E62.87531
G1 X89.896 Y49.095 E62.88817
G1 X89.799 Y49.051 E62.89669
G1 X89.723 Y48.992 E62.90438
G1 X89.695 Y48.960 E62.90779
G1 X89.651 Y48.882 E62.91495
G1 X89.617 Y48.763 E62.92485
G1 X89.612 Y46.586 E63.09901
G1 X89.612 Y44.119 E63.29637
G1 X88.612 Y44.119 E63.37637
G1 X88.612 Y41.619 E63.57637
G1 X93.412 Y41.619 E63.96037
G1 X93.412 Y44.119 E64.16037
G1 X92.412 Y44.119 E64.24037
G0 F9000 X92.812 Y44.519
;TYPE:WALL-OUTER
G1 F540 X92.812 Y48.704 E64.57517
G1 X92.777 Y48.946 E64.59473
G1 X92.689 Y49.142 E64.61192
G1 X92.578 Y49.284 E64.62634
G1 X92.483 Y49.366 E64.63638
G1 X92.343 Y49.446 E64.64928
G1 X92.185 Y49.499 E64.66261
G1 X92.086 Y49.514 E64.67062
G1 X90.026 Y49.518 E64.83542
G1 X89.785 Y49.483 E64.85490
G1 X89.589 Y49.395 E64.87209
G1 X89.447 Y49.284 E64.88651
G1 X89.365 Y49.189 E64.89655
G1 X89.285 Y49.049 E64.90945
G1 X89.232 Y48.891 E64.92278
G1 X89.217 Y48.792 E64.93079
G1 X89.212 Y44.519 E65.27263
G1 X88.212 Y44.519 E65.35263
G1 X88.212 Y41.219 E65.61663
G1 X93.812 Y41.219 E66.06463
G1 X93.812 Y44.519 E66.32863
G1 X92.812 Y44.519 E66.40863
G0 F9000 X92.812 Y43.519
;LAYER:7
G0 X93.271 Y42.359 Z1.700
;TYPE:FILL
G1 F1560 X92.670 Y41.758 E66.47663
G0 F9000 X92.412 Y44.119
;TYPE:WALL-INNER
G1 F1140 X92.412 Y48.682 E66.84167
G1 X92.392 Y48.837 E66.85417
G1 X92.327 Y48.960 E66.86530
G1 X92.299 Y48.992 E66.86870
G1 X92.164 Y49.082 E66.88168
G1 X92.079 Y49.107 E66.88877
G1 X91.072 Y49.118 E66.96933
G1 X90.040 Y49.118 E67.05189
G1 X89.894 Y49.098 E67.06368
