;FLAVOR:UltiGCode
;TIME:5330
;MATERIAL:8224
;MATERIAL2:0

;Layer count: 15
;LAYER:0
M107
G0 F9000 X72.854 Y72.207 Z0.300
;TYPE:SKIRT
G1 F1200 X73.378 Y71.683 E0.08893
G1 X73.972 Y71.238 E0.17799
G1 X74.629 Y70.879 E0.26783
G1 X75.324 Y70.622 E0.35675
G1 X76.159 Y70.439 E0.45933
G1 X159.902 Y70.419 E10.50849
G1 X160.531 Y70.463 E10.58415
G1 X161.255 Y70.622 E10.67310
G1 X161.950 Y70.879 E10.76202
G1 X162.607 Y71.238 E10.85187
G1 X163.201 Y71.683 E10.94093
G1 X163.725 Y72.207 E11.02986
G1 X164.170 Y72.801 E11.11892
G1 X164.526 Y73.454 E11.20817
G1 X164.788 Y74.153 E11.29775
G1 X164.969 Y74.992 E11.40074
G1 X164.990 Y94.611 E13.75502
G1 X164.990 Y99.170 E14.30210
G1 X148.481 Y99.170 E16.28318
G1 X148.481 Y108.837 E17.44322
G1 X164.990 Y108.837 E19.42430
G1 X164.990 Y117.670 E20.48426
G1 X148.481 Y117.670 E22.46534
G1 X148.481 Y127.337 E23.62538
G1 X164.990 Y127.337 E25.60646
G1 X164.990 Y142.440 E27.41882
G1 X164.944 Y143.064 E27.49391
G1 X164.788 Y143.787 E27.58266
G1 X164.526 Y144.488 E27.67247
G1 X164.170 Y145.138 E27.76140
G1 X163.725 Y145.735 E27.85075
G1 X163.201 Y146.256 E27.93942
G1 X162.607 Y146.704 E28.02870
G1 X161.950 Y147.060 E28.11838
G1 X161.261 Y147.318 E28.20666
G1 X160.420 Y147.502 E28.30997
G1 X76.678 Y147.522 E38.35901
G1 X76.049 Y147.478 E38.43467
G1 X75.318 Y147.318 E38.52447
G1 X74.629 Y147.060 E38.61276
G1 X73.972 Y146.704 E38.70243
G1 X73.378 Y146.256 E38.79171
G1 X72.854 Y145.735 E38.88038
G1 X72.409 Y145.138 E38.96973
G1 X72.050 Y144.484 E39.05926
G1 X71.793 Y143.787 E39.14840
G1 X71.610 Y142.954 E39.25075
G1 X71.590 Y80.067 E46.79719
G1 X71.590 Y75.507 E47.34439
G1 X71.634 Y74.878 E47.42005
G1 X71.793 Y74.153 E47.50912
G1 X72.050 Y73.458 E47.59804
G1 X72.409 Y72.801 E47.68788
G1 X72.854 Y72.207 E47.77694
G10
G0 F9000 X75.734 Y74.701
;TYPE:WALL-INNER
G11
G1 F1200 X75.872 Y74.563 E47.80036
G1 X76.033 Y74.442 E47.82453
G1 X76.206 Y74.348 E47.84816
G1 X76.400 Y74.276 E47.87299
G1 X76.569 Y74.239 E47.89375
G1 X159.762 Y74.219 E57.87691
G1 X159.993 Y74.235 E57.90470
G1 X160.179 Y74.276 E57.92755
G1 X160.373 Y74.348 E57.95238
G1 X160.546 Y74.442 E57.97601
G1 X160.707 Y74.563 E58.00018
G1 X160.845 Y74.701 E58.02360
G1 X160.966 Y74.862 E58.04777
G1 X161.062 Y75.039 E58.07193
G1 X161.131 Y75.222 E58.09540
G1 X161.169 Y75.400 E58.11724
G1 X161.189 Y95.370 E60.51364
G1 X144.681 Y95.370 E62.49460
G1 X144.681 Y112.637 E64.56664
G1 X161.190 Y112.637 E66.54772
G1 X161.190 Y113.870 E66.69568
G1 X144.681 Y113.870 E68.67676
G1 X144.681 Y131.137 E70.74880
G1 X146.202 Y131.137 E70.93132
G1 X145.903 Y131.292 E70.97174
G1 X145.619 Y131.507 E71.01448
G1 X145.378 Y131.764 E71.05676
G1 X145.186 Y132.046 E71.09770
G1 X145.038 Y132.387 E71.14230
G1 X144.951 Y132.712 E71.18268
G1 X144.922 Y133.071 E71.22590
G1 X144.956 Y133.446 E71.27108
G1 X145.050 Y133.790 E71.31388
G1 X145.200 Y134.113 E71.35661
G1 X145.404 Y134.406 E71.39945
G1 X145.654 Y134.662 E71.44239
G1 X145.943 Y134.870 E71.48512
G1 X146.259 Y135.025 E71.52736
G1 X146.581 Y135.124 E71.56778
G1 X146.938 Y135.169 E71.61096
G1 X147.309 Y135.150 E71.65554
G1 X147.639 Y135.079 E71.69605
G1 X147.971 Y134.945 E71.73901
G1 X148.277 Y134.756 E71.78217
G1 X148.553 Y134.507 E71.82678
G1 X148.768 Y134.243 E71.86763
G1 X148.946 Y133.914 E71.91252
G1 X149.058 Y133.598 E71.95275
G1 X149.118 Y133.245 E71.99572
G1 X149.116 Y132.868 E72.04096
G1 X149.052 Y132.520 E72.08342
G1 X148.939 Y132.201 E72.12403
G1 X148.753 Y131.874 E72.16917
G1 X148.527 Y131.601 E72.21170
G1 X148.274 Y131.379 E72.25209
G1 X147.971 Y131.192 E72.29482
G1 X147.835 Y131.137 E72.31242
G1 X161.190 Y131.137 E73.91502
G1 X161.190 Y142.305 E75.25518
G1 X161.174 Y142.521 E75.28118
G1 X161.133 Y142.714 E75.30485
G1 X161.061 Y142.904 E75.32923
G1 X160.968 Y143.075 E75.35259
G1 X160.844 Y143.241 E75.37746
G1 X160.706 Y143.378 E75.40079
G1 X160.549 Y143.496 E75.42436
G1 X160.367 Y143.595 E75.44922
G1 X160.182 Y143.664 E75.47292
G1 X160.010 Y143.702 E75.49405
G1 X76.818 Y143.722 E85.47709
G1 X76.586 Y143.706 E85.50500
G1 X76.397 Y143.664 E85.52823
G1 X76.212 Y143.595 E85.55193
G1 X76.030 Y143.496 E85.57679
G1 X75.873 Y143.378 E85.60036
G1 X75.735 Y143.241 E85.62369
G1 X75.611 Y143.075 E85.64856
G1 X75.519 Y142.907 E85.67154
G1 X75.448 Y142.715 E85.69611
G1 X75.410 Y142.542 E85.71736
G1 X75.390 Y75.647 E93.74476
G1 X75.406 Y75.415 E93.77267
G1 X75.447 Y75.229 E93.79552
G1 X75.519 Y75.035 E93.82035
G1 X75.613 Y74.862 E93.84398
G1 X75.734 Y74.701 E93.86815
G0 F9000 X77.190 Y76.019
G1 F1200 X77.190 Y80.219 E94.37215
G1 X83.390 Y80.219 E95.11615
G1 X83.390 Y76.019 E95.62015
G1 X77.190 Y76.019 E96.36415
G0 F9000 X83.331 Y76.078
G0 X83.331 Y80.160
G0 X83.656 Y81.370
G1 F1200 X83.656 Y88.283 E97.19371
G1 X144.390 Y88.283 E104.48179
G1 X144.390 Y81.370 E105.31135
G1 X83.656 Y81.370 E112.59943
G0 F9000 X83.715 Y88.224
G0 X95.529 Y120.372
G1 F1200 X95.529 Y124.572 E113.10343
G1 X100.729 Y124.572 E113.72743
G1 X100.729 Y120.372 E114.23143
G1 X95.529 Y120.372 E114.85543
G0 F9000 X100.670 Y120.431
G0 X104.190 Y126.370
G1 F1200 X104.190 Y129.658 E115.24999
G1 X83.656 Y129.658 E117.71407
G1 X83.656 Y136.570 E118.54351
G1 X144.390 Y136.570 E125.83159
G1 X144.390 Y129.658 E126.66103
G1 X121.390 Y129.658 E129.42103
G1 X121.390 Y126.370 E129.81559
G1 X104.190 Y126.370 E131.87959
G0 F9000 X83.076 Y129.694
G1 F1200 X83.013 Y129.345 E131.92215
G1 X82.898 Y129.025 E131.96295
G1 X82.713 Y128.699 E132.00793
G1 X82.487 Y128.426 E132.05046
G1 X82.234 Y128.204 E132.09085
G1 X81.931 Y128.017 E132.13358
G1 X81.599 Y127.883 E132.17654
G1 X81.250 Y127.809 E132.21935
G1 X80.892 Y127.793 E132.26235
G1 X80.519 Y127.845 E132.30755
G1 X80.179 Y127.953 E132.35036
G1 X79.863 Y128.117 E132.39308
G1 X79.579 Y128.332 E132.43582
G1 X79.338 Y128.589 E132.47810
G1 X79.146 Y128.871 E132.51904
G1 X78.998 Y129.212 E132.56365
G1 X78.911 Y129.538 E132.60414
G1 X78.882 Y129.897 E132.64736
G1 X78.916 Y130.271 E132.69242
G1 X79.010 Y130.615 E132.73522
G1 X79.160 Y130.938 E132.77795
G1 X79.364 Y131.231 E132.82079
G1 X79.614 Y131.487 E132.86373
G1 X79.903 Y131.695 E132.90646
G1 X80.219 Y131.850 E132.94870
G1 X80.541 Y131.949 E132.98912
G1 X80.898 Y131.994 E133.03230
G1 X81.269 Y131.975 E133.07688
G1 X81.599 Y131.904 E133.11739
G1 X81.931 Y131.770 E133.16035
G1 X82.237 Y131.581 E133.20351
G1 X82.513 Y131.332 E133.24811
G1 X82.728 Y131.068 E133.28897
G1 X82.906 Y130.740 E133.33375
G1 X83.019 Y130.423 E133.37414
G1 X83.078 Y130.069 E133.41720
G1 X83.076 Y129.694 E133.46220
G0 F9000 X83.390 Y137.722
G1 F1200 X77.190 Y137.722 E134.20620
G1 X77.190 Y141.922 E134.71020
G1 X83.390 Y141.922 E135.45420
G1 X83.390 Y137.722 E135.95820
G0 F9000 X149.006 Y137.722
G1 F1200 X149.006 Y141.922 E136.46220
G1 X155.206 Y141.922 E137.20620
G1 X155.206 Y137.722 E137.71020
G1 X149.006 Y137.722 E138.45420
G0 F9000 X149.164 Y131.137
G0 X144.740 Y131.078
G0 X144.740 Y113.929
G0 X144.740 Y95.429
G0 X150.050 Y94.467
G1 F1200 X155.250 Y94.467 E139.07820
G1 X155.250 Y90.267 E139.58220
G1 X150.050 Y90.267 E140.20620
G1 X150.050 Y94.467 E140.71020
G0 F9000 X150.050 Y87.467
G1 F1200 X155.250 Y87.467 E141.33420
G1 X155.250 Y83.267 E141.83820
G1 X150.050 Y83.267 E142.46220
G1 X150.050 Y87.467 E142.96620
G0 F9000 X148.553 Y86.249
G1 F1200 X148.768 Y85.984 E143.00715
G1 X148.946 Y85.655 E143.05204
G1 X149.058 Y85.339 E143.09227
G1 X149.118 Y84.985 E143.13536
G1 X149.116 Y84.608 E143.18060
G1 X149.052 Y84.260 E143.22306
G1 X148.939 Y83.941 E143.26367
G1 X148.753 Y83.614 E143.30881
G1 X148.527 Y83.341 E143.35134
G1 X148.274 Y83.119 E143.39173
G1 X147.971 Y82.932 E143.43446
G1 X147.639 Y82.798 E143.47742
G1 X147.290 Y82.724 E143.52024
G1 X146.932 Y82.708 E143.56324
G1 X146.559 Y82.760 E143.60843
G1 X146.219 Y82.868 E143.65124
G1 X145.905 Y83.031 E143.69369
G1 X145.632 Y83.233 E143.73445
G1 X145.378 Y83.504 E143.77902
G1 X145.186 Y83.786 E143.81996
G1 X145.038 Y84.127 E143.86457
G1 X144.951 Y84.453 E143.90505
G1 X144.922 Y84.812 E143.94827
G1 X144.956 Y85.186 E143.99334
G1 X145.050 Y85.530 E144.03613
G1 X145.200 Y85.853 E144.07887
G1 X145.404 Y86.146 E144.12171
G1 X145.654 Y86.402 E144.16465
G1 X145.943 Y86.610 E144.20738
G1 X146.259 Y86.765 E144.24961
G1 X146.581 Y86.864 E144.29004
G1 X146.938 Y86.909 E144.33322
G1 X147.309 Y86.890 E144.37780
G1 X147.639 Y86.819 E144.41830
G1 X147.973 Y86.685 E144.46149
G1 X148.291 Y86.485 E144.50657
G1 X148.553 Y86.249 E144.54888
G0 F9000 X149.115 Y84.609
G0 X149.006 Y80.219
G1 F1200 X155.206 Y80.219 E145.29288
G1 X155.206 Y76.019 E145.79688
G1 X149.006 Y76.019 E146.54088
G1 X149.006 Y80.219 E147.04488
G0 F9000 X149.406 Y79.819
;TYPE:WALL-OUTER
G1 F1200 X154.806 Y79.819 E147.69288
G1 X154.806 Y76.419 E148.10088
G1 X149.406 Y76.419 E148.74888
G1 X149.406 Y79.819 E149.15688
G0 F9000 X149.106 Y79.819
G0 X147.903 Y83.014
G0 X147.790 Y83.290
G1 F1200 X147.522 Y83.182 E149.19156
G1 X147.239 Y83.122 E149.22627
G1 X146.951 Y83.109 E149.26087
G1 X146.648 Y83.151 E149.29757
G1 X146.373 Y83.239 E149.33222
G1 X146.118 Y83.371 E149.36668
G1 X145.899 Y83.533 E149.39937
G1 X145.691 Y83.755 E149.43587
G1 X145.538 Y83.980 E149.46852
G1 X145.417 Y84.259 E149.50502
G1 X145.347 Y84.521 E149.53756
G1 X145.323 Y84.810 E149.57236
G1 X145.351 Y85.114 E149.60899
G1 X145.427 Y85.392 E149.64358
G1 X145.549 Y85.654 E149.67826
G1 X145.713 Y85.891 E149.71284
G1 X145.915 Y86.097 E149.74747
G1 X146.149 Y86.265 E149.78203
G1 X146.407 Y86.392 E149.81654
G1 X146.666 Y86.471 E149.84903
G1 X146.953 Y86.508 E149.88376
G1 X147.256 Y86.492 E149.92017
G1 X147.522 Y86.435 E149.95282
G1 X147.790 Y86.327 E149.98749
G1 X148.049 Y86.164 E150.02421
G1 X148.262 Y85.972 E150.05862
G1 X148.434 Y85.761 E150.09129
G1 X148.579 Y85.492 E150.12796
G1 X148.669 Y85.238 E150.16030
G1 X148.718 Y84.952 E150.19512
G1 X148.716 Y84.646 E150.23184
G1 X148.664 Y84.363 E150.26637
G1 X148.574 Y84.108 E150.29882
G1 X148.422 Y83.842 E150.33558
G1 X148.239 Y83.620 E150.37010
G1 X148.035 Y83.442 E150.40259
G1 X147.790 Y83.290 E150.43719
G0 F9000 X147.903 Y83.014
G0 X150.450 Y83.367
G0 X150.450 Y83.667
G1 F1200 X150.450 Y87.067 E150.84519
G1 X154.850 Y87.067 E151.37319
G1 X154.850 Y83.667 E151.78119
G1 X150.450 Y83.667 E152.30919
G0 F9000 X150.450 Y83.367
G0 X143.990 Y81.470
G0 X143.990 Y81.770
G1 F1200 X84.056 Y81.770 E159.50127
G1 X84.056 Y87.883 E160.23483
G1 X143.990 Y87.883 E167.42691
G1 X143.990 Y81.770 E168.16047
G0 F9000 X143.990 Y81.470
G0 X144.331 Y81.429
G0 X145.202 Y85.853
G0 X146.581 Y86.862
G0 X150.450 Y90.367
G0 X150.450 Y90.667
G1 F1200 X150.450 Y94.067 E168.56847
G1 X154.850 Y94.067 E169.09647
G1 X154.850 Y90.667 E169.50447
G1 X150.450 Y90.667 E170.03247
G0 F9000 X150.450 Y90.367
G0 X150.109 Y90.326
G0 X145.081 Y95.470
G0 X145.081 Y95.770
G1 F1200 X145.081 Y112.237 E172.00851
G1 X161.590 Y112.237 E173.98959
G1 X161.590 Y114.270 E174.23355
G1 X145.081 Y114.270 E176.21463
G1 X145.081 Y130.737 E178.19067
G1 X161.590 Y130.737 E180.17175
G1 X161.590 Y142.322 E181.56195
G1 X161.571 Y142.579 E181.59288
G1 X161.517 Y142.827 E181.62333
G1 X161.427 Y143.070 E181.65443
G1 X161.305 Y143.292 E181.68483
G1 X161.150 Y143.500 E181.71596
G1 X160.967 Y143.682 E181.74693
G1 X160.763 Y143.836 E181.77760
G1 X160.535 Y143.960 E181.80874
G1 X160.296 Y144.049 E181.83935
G1 X160.054 Y144.102 E181.86908
G1 X76.804 Y144.122 E191.85908
G1 X76.528 Y144.103 E191.89227
G1 X76.283 Y144.049 E191.92238
G1 X76.044 Y143.960 E191.95298
G1 X75.816 Y143.836 E191.98413
G1 X75.612 Y143.682 E192.01480
G1 X75.429 Y143.500 E192.04577
G1 X75.274 Y143.292 E192.07690
G1 X75.154 Y143.074 E192.10676
G1 X75.062 Y142.825 E192.13862
G1 X75.010 Y142.587 E192.16785
G1 X74.990 Y75.633 E200.20233
G1 X75.009 Y75.357 E200.23553
G1 X75.062 Y75.118 E200.26491
G1 X75.153 Y74.871 E200.29649
G1 X75.278 Y74.643 E200.32769
G1 X75.432 Y74.437 E200.35856
G1 X75.608 Y74.261 E200.38843
G1 X75.814 Y74.107 E200.41929
G1 X76.042 Y73.982 E200.45049
G1 X76.289 Y73.891 E200.48208
G1 X76.525 Y73.839 E200.51108
G1 X159.776 Y73.819 E210.50120
G1 X160.051 Y73.838 E210.53428
G1 X160.290 Y73.891 E210.56366
G1 X160.537 Y73.982 E210.59524
G1 X160.765 Y74.107 E210.62645
G1 X160.971 Y74.261 E210.65731
G1 X161.147 Y74.437 E210.68718
G1 X161.301 Y74.643 E210.71804
G1 X161.429 Y74.877 E210.75005
G1 X161.515 Y75.106 E210.77940
G1 X161.569 Y75.358 E210.81033
G1 X161.590 Y95.770 E213.25977
G1 X145.081 Y95.770 E215.24085
G0 F9000 X145.081 Y95.470
G0 X144.740 Y95.429
G0 X144.290 Y130.058
G0 X143.990 Y130.058
G1 F1200 X120.990 Y130.058 E218.00085
G1 X120.990 Y126.770 E218.39541
G1 X104.590 Y126.770 E220.36341
G1 X104.590 Y130.058 E220.75797
G1 X84.056 Y130.058 E223.22205
G1 X84.056 Y136.170 E223.95549
G1 X143.990 Y136.170 E231.14757
G1 X143.990 Y130.058 E231.88101
G0 F9000 X144.290 Y130.058
G0 X144.740 Y131.078
G0 X145.670 Y131.599
G0 X145.888 Y131.805
G1 F1200 X145.691 Y132.015 E231.91556
G1 X145.538 Y132.240 E231.94821
G1 X145.417 Y132.519 E231.98471
G1 X145.347 Y132.781 E232.01725
G1 X145.323 Y133.069 E232.05193
G1 X145.351 Y133.374 E232.08868
G1 X145.427 Y133.652 E232.12327
G1 X145.549 Y133.914 E232.15795
G1 X145.713 Y134.151 E232.19253
G1 X145.915 Y134.357 E232.22716
G1 X146.149 Y134.525 E232.26172
G1 X146.407 Y134.652 E232.29623
G1 X146.666 Y134.731 E232.32872
G1 X146.953 Y134.768 E232.36345
G1 X147.256 Y134.752 E232.39986
G1 X147.522 Y134.695 E232.43250
G1 X147.790 Y134.587 E232.46718
G1 X148.036 Y134.435 E232.50188
G1 X148.262 Y134.231 E232.53841
G1 X148.434 Y134.020 E232.57108
G1 X148.579 Y133.751 E232.60775
G1 X148.669 Y133.497 E232.64009
G1 X148.718 Y133.212 E232.67479
G1 X148.716 Y132.906 E232.71151
G1 X148.664 Y132.623 E232.74604
G1 X148.574 Y132.368 E232.77849
G1 X148.422 Y132.102 E232.81525
G1 X148.239 Y131.880 E232.84978
G1 X148.035 Y131.702 E232.88227
G1 X147.790 Y131.550 E232.91686
G1 X147.522 Y131.442 E232.95154
G1 X147.239 Y131.382 E232.98625
G1 X146.951 Y131.369 E233.02085
G1 X146.648 Y131.411 E233.05755
G1 X146.373 Y131.499 E233.09220
G1 X146.117 Y131.631 E233.12677
G1 X145.888 Y131.805 E233.16128
G0 F9000 X145.670 Y131.599
G0 X144.952 Y132.713
G0 X145.405 Y134.406
G0 X146.938 Y135.167
G0 X149.406 Y137.822
G0 X149.406 Y138.122
G1 F1200 X149.406 Y141.522 E233.56928
G1 X154.806 Y141.522 E234.21728
G1 X154.806 Y138.122 E234.62528
G1 X149.406 Y138.122 E235.27328
G0 F9000 X149.406 Y137.822
G0 X83.715 Y136.511
G0 X83.715 Y129.717
G0 X104.249 Y126.429
G0 X100.329 Y124.472
G0 X100.329 Y124.172
G1 F1200 X100.329 Y120.772 E235.68128
G1 X95.929 Y120.772 E236.20928
G1 X95.929 Y124.172 E236.61728
G1 X100.329 Y124.172 E237.14528
G0 F9000 X100.329 Y124.472
G0 X82.920 Y129.396
G0 X82.625 Y129.448
G1 F1200 X82.533 Y129.192 E237.17792
G1 X82.382 Y128.927 E237.21452
G1 X82.199 Y128.705 E237.24905
G1 X81.995 Y128.527 E237.28154
G1 X81.750 Y128.375 E237.31613
G1 X81.482 Y128.267 E237.35081
G1 X81.199 Y128.207 E237.38552
G1 X80.911 Y128.194 E237.42012
G1 X80.608 Y128.236 E237.45683
G1 X80.333 Y128.324 E237.49147
G1 X80.077 Y128.456 E237.52604
G1 X79.848 Y128.630 E237.56055
G1 X79.651 Y128.840 E237.59510
G1 X79.498 Y129.065 E237.62775
G1 X79.377 Y129.344 E237.66425
G1 X79.307 Y129.606 E237.69679
G1 X79.283 Y129.895 E237.73159
G1 X79.311 Y130.199 E237.76822
G1 X79.387 Y130.477 E237.80281
G1 X79.509 Y130.739 E237.83749
G1 X79.673 Y130.976 E237.87207
G1 X79.875 Y131.182 E237.90670
G1 X80.109 Y131.350 E237.94126
G1 X80.367 Y131.477 E237.97577
G1 X80.626 Y131.556 E238.00826
G1 X80.913 Y131.593 E238.04299
G1 X81.216 Y131.577 E238.07940
G1 X81.482 Y131.520 E238.11204
G1 X81.750 Y131.412 E238.14672
G1 X81.996 Y131.260 E238.18142
G1 X82.222 Y131.056 E238.21795
G1 X82.394 Y130.845 E238.25062
